!!!OTL: Die Koenigskinder Ach Mutter, liebe Mutter,
!!!ARE: Europa, Mitteleuropa, Deutschland (), Provinz Brandenburg
!!!YOR: 1, S. 199
!!    1804 aufgezeichnet (vor)
!!!SCT: Q0020B
!!!YEM: Copyright 1995, estate of Helmut Schaffrath.
**kern
*ICvox
*Ivox
*M2/4
*k[f#]
*G:
{8d
=1
8.b
16b
8.b
16a
=2
4a
8g}
{8d
=3
8cc
8cc
16cc
16b
16dd
16b
=4
4a
8r}
{8d
=5
8.dd
16ee
8dd
8cc
=6
4b
16dd
16cc}
{16b
16a
=7
8g
8g
16b
16a
16g
16a
=8
4g}
{4a
=9
8b
8b
16dd
16cc
16b
16a
=10
4g
8r}
==
!!!AGN: Ballade, Liebe, Trennung, Tod
!!!ONB: ESAC (Essen Associative Code) Database: BALLADE
!!!AMT: simple duple
!!!AIN: vox
!!!EED: Helmut Schaffrath
!!!EEV: 1.0
*-
